X:1
T:Fiducia, 85.83
T:Fiducia, 85.83
T:Edwin Pond Parker, 1891
T:Public Domain Courtesy of the Cyber Hymnal™
C:Edwin Pond Parker, 1891
Z:Public Domain
Z:Courtesy of the Cyber Hymnal™
%%score ( 1 2 ) ( 3 4 )
L:1/8
Q:1/4=100
M:3/4
K:Bb
V:1 treble 
V:2 treble 
V:3 bass 
V:4 bass 
V:1
 [DF][DB] | [Fd]3 [FB] [EG][EB] | [DF]2 D4 | [=EB]3 [EA] [EG][Ec] | [Ec]4 [Dd][DB] | %5
 [DF]3 [EF] [DB]D | [EA]2 [EG]4 | (F2 B2) [Ec]2 | [DB]4 |] %9
V:2
 x2 | x6 | x2 D4 | x6 | x6 | x5 D | x6 | D4 x2 | x4 |] %9
V:3
 [B,,B,][B,,B,] | [B,,B,]3 [D,B,] [E,B,][G,B,] | B,2 [B,,B,]4 | [C,G,]3 [C,A,] [C,B,][C,B,] | %4
 [F,A,]4 [B,,B,][B,,B,] | B,3 [A,C] [G,B,][F,B,] | [E,B,]2 [E,B,]4 | [F,B,]4 [F,A,]2 | %8
 [B,,F,B,]4 |] %9
V:4
 x2 | x6 | B,2 x4 | x6 | x6 | B,3 x3 | x6 | x6 | x4 |] %9

